X:1
T:Leicester (Bishop), 88.88.88
T:John Bishop (1665-1737)
T:Leicester (Bishop), 88.88.88
T:Public Domain
C:John Bishop (1665-1737)
Z:Public Domain
%%score ( 1 2 ) ( 3 4 )
L:1/8
M:none
K:C
V:1 treble 
V:2 treble 
V:3 bass 
V:4 bass 
V:1
 [CE]8 | E4 (E2 F2) | [E^G]4 [EA]4 | ([Dd]2 [Ec]2) (B2 A2) | [E^G]6 [EG]2 | [EA]4 (G2 F2) | %6
 (C2 D2) (E2 F2) | [EA]4 [E^G]4 | [EA]8 | [CE]8 | E4 (E2 F2) | [E^G]4 [EA]4 | %12
 ([Dd]2 [Ec]2) (B2 A2) | [E^G]6 [EG]2 | [EA]4 [GB]4 | [Gc]4 ([Fd]2 [Ec]2) | [Ec]4 [DB]4 | [Ec]8 | %18
 (c6 d2) | [Ge]4 [Gd]4 | [Gc]4 [^GB]4 | A4 (B2 A2) | [E^G]6 [EG]2 | [EA]4 (G2 F2) | %24
 (C2 D2) (E2 F2) | [EA]4 (E2 D2) | [CA]8 |] %27
V:2
 x8 | E4 A4 | x8 | x4 F4 | x8 | x4 D4 | E4 A4 | x8 | x8 | x8 | E4 A4 | x8 | x4 F4 | x8 | x8 | x8 | %16
 x8 | x8 | E8 | x8 | x8 | A4 F4 | x8 | x4 D4 | E4 A4 | x4 ^G4 | x8 |] %27
V:3
 [A,,A,]8 | ([A,,C]2 [B,,D]2) (C,2 D,2) | [E,B,]4 ([A,C]2 [G,B,]2) | [F,A,]4 (D2 C2) | %4
 [E,B,]6 [E,B,]2 | [A,,C]4 [B,,D]4 | (C,2 B,,2) ([C,E]2 [D,D]2) | [E,C]4 [E,B,]4 | [A,,C]8 | %9
 [A,,A,]8 | ([A,,C]2 [B,,D]2) (C,2 D,2) | [E,B,]4 [A,C]2 [G,B,]2 | [F,A,]4 (D2 C2) | %13
 [E,B,]6 [E,D]2 | [A,C]4 (G,2 F,2) | [E,C]4 [F,A,]4 | G,4 [G,,G,]4 | [C,G,]8 | [C,G,]8 | %19
 [C,C]4 (G,2 F,2) | [E,C]4 (E,2 D,2) | [C,E]4 (D2 C2) | [E,B,]6 [E,B,]2 | [A,,C]4 [B,,D]4 | %24
 (C,2 B,,2) ([C,E]2 [D,D]2) | [E,C]4 [E,B,]4 | [A,,A,]8 |] %27
V:4
 x8 | x4 C4 | x8 | x4 D,4 | x8 | x8 | G,4 x4 | x8 | x8 | x8 | x4 C4 | x8 | x4 D,4 | x8 | x4 D4 | %15
 x8 | G,4 x4 | x8 | x8 | x4 B,4 | x4 E4 | x4 D,4 | x8 | x8 | G,4 x4 | x8 | x8 |] %27

